X: 38495
T: Steel, The
R: reel
M: 4/4
K: Gmajor
D|:ECEG DG, DE|G2 GA BGGD|ECEG D2 DE|GABd AGED|
ECEG DB, DE|G2 GA BGGA|Bd (3ddd ed (3ddd|dBGA ABAG:|
Bd (3ddd dBGB|ce (3eee e2 ef|g2 gf g2 ga|bage dBAG|
Bd (3ddd ed (3ddd|dBGA ABBA|BGBd gdBd|1 cBAG (3EFG Ac:|2 cBAF D2 z2||

